X:1
T:Animal Fair
M:6/8
L:1/8
K:C
 E| GGG AAE| G2- G, z2 E| GGG A2 E| G2- G, z2 c|B-B A FAA| BBB A2 A|\
 GGG A2 E| G2- G, z2 G,| G2 G A2 E| G2- G, z2 E| GGG AAE| G2- G, z2 c|\
 BBB A2 A| GBB A2 F| G2 G FED| C2 E C2 E| G2 G FED| C6-| C2 z2||
